X:8
T:Swagger 3rds
T:Medley 2019
R:Jig
C:Shane Smith, Arr. Adam Blaine
M:6/8
L:1/8
K:D
[| {g}B{d}B{e}B {g}fed | e{g}e{A}e {g}A3 | {g}B{d}B{e}B {g}Bdf | e{g}e{A}e {g}edc |
 {g}B{d}B{e}B {g}fed | e{g}e{A}e {g}A3 | {g}Bdf {g}edc | {g}B{d}B{e}B {g}B2 A ||  
[|:{g}Bdf {g}edc | {g}d{e}d{G}d {g}A3 | {g}A3 B3 | {g}c3 {GdG}c3 |
{g}Bdf {g}edc | {g}d{e}d{G}d {g}A3 | {g}Bdf {g}edc | {g}B{d}B{e}B {g}B2 A :|]
[| {g}BfB {g}fed | {g}AeA {g}edc | {g}GdG {g}dcB | {g}cA{g}d A{g}eA |
{g}BfB {g}fed | {g}AeA {g}edc | {g}Bdf {g}edc | {g}B{d}B{e}B {g}B2 A ||
{g}dfd {g}fed | {g}cec {g}edc | {g}BdB {g}dcB | {g}A2 B2 c2 |
{g}dfd {g}fed | {g}cec {g}edc | {g}B3 {G}A2B |  {g}A2 B2 c2 ||
{g}dfd {g}fed | {g}cec {g}edc | {g}BdB {g}dcB | {g}A2 B2 c2 |
{g}dfd {g}fed | {g}cec {g}edc | {g}B3 {G}A3 | "OFF" [M:1/8]| {g}d |]